X: 19202
T: Island Theme
R: reel
M: 4/4
K: Edorian
EF|:GA GF GF GF|FE ED E2EF|GA GF GF GF|1 FE ED E2EF:|2 FE ED E4||
|:BA Bd eB BA|GE F/E/D E2BB|BA Bd eB BA|1 GE F/E/D E4:|2 GE F/E/D E3A,||
|:D2DC D2FG|A2GF ED EF|A,D DC D2FG|A2GF E4:|

